app/img/logo.svg

<svg width="175" height="53" viewBox="0 0 175 53" fill="none" xmlns="http://www.w3.org/2000/svg">
<path d="M61.4293 3.41373H59.3078V17.7242L55.0648 3.41373H52.7505L57.0513 17.8785H52.5576V20H61.4293V3.41373ZM70.1135 3.41373V10.6461H65.4847V3.41373H63.3632V20H65.4847V12.7676H70.1135V20H72.235V3.41373H70.1135ZM80.9055 3.41373L76.2768 14.5034V3.41373H74.1553V20H76.2768L80.9055 9.00677V20H83.027V3.41373H80.9055ZM91.6976 11.109C92.5269 10.299 93.0477 9.16106 93.0477 7.88816C93.0477 5.4388 91.0612 3.43301 88.6118 3.41373H84.9474V20H88.6118H88.959C91.6398 20 93.8191 17.8206 93.8191 15.1206C93.8191 13.4619 92.9705 11.9769 91.6976 11.109ZM87.0689 5.53523H88.7082C89.9426 5.61237 90.9262 6.63455 90.9262 7.88816C90.9262 9.16106 89.9426 10.1832 88.7082 10.2604H87.0689V5.53523ZM89.094 17.8785H87.0689V12.3819H89.094C90.5404 12.459 91.6976 13.6548 91.6976 15.1206C91.6976 16.6056 90.5404 17.8014 89.094 17.8785ZM97.6726 12.2855H103.266V10.164H97.6726V5.53523H104.423V3.41373H95.5511V20H104.423V17.8785H97.6726V12.2855ZM109.434 3.41373H106.155V20H108.276V14.6963H109.434C112.519 14.677 115.027 12.1505 115.027 9.04535C115.027 5.95953 112.519 3.43301 109.434 3.41373ZM109.434 12.5748H108.276V5.53523H109.434C111.343 5.55451 112.905 7.136 112.905 9.04535C112.905 10.974 111.343 12.5555 109.434 12.5748ZM129.104 16.1427C127.947 17.3578 126.346 17.9749 124.668 17.9749C122.99 17.9749 121.428 17.3192 120.232 16.1427C119.037 14.9663 118.4 13.3848 118.4 11.7069C118.4 10.029 119.056 8.46675 120.232 7.271C121.409 6.07525 122.99 5.4388 124.668 5.4388C126.346 5.4388 127.908 6.07525 129.104 7.271C129.741 7.90745 130.203 8.65962 130.531 9.46965L132.518 8.73676C131.322 5.5738 128.256 3.3173 124.668 3.3173C120.04 3.3173 116.279 7.07814 116.279 11.7069C116.279 16.3356 120.04 20.0964 124.668 20.0964C128.082 20.0964 131.013 18.0714 132.325 15.1591L130.319 14.4262C130.011 15.0434 129.606 15.622 129.104 16.1427ZM140.818 3.41373L136.189 14.5034V3.41373H134.067V20H136.189L140.818 9.00677V20H142.939V3.41373H140.818ZM153.345 3.41373H144.474V5.53523H147.849V20H149.97V5.53523H153.345V3.41373ZM157.001 12.2855H162.594V10.164H157.001V5.53523H163.751V3.41373H154.879V20H163.751V17.8785H157.001V12.2855ZM173.969 3.41373H165.097V5.53523H168.472V20H170.594V5.53523H173.969V3.41373Z" fill="white"/>
<path d="M69.4503 41.3757C67.8158 43.092 65.5546 43.9637 63.1845 43.9637C60.8144 43.9637 58.6077 43.0375 56.9187 41.3757C55.2296 39.7139 54.3306 37.4799 54.3306 35.1098C54.3306 32.7397 55.2568 30.533 56.9187 28.844C58.5805 27.1549 60.8144 26.2559 63.1845 26.2559C65.5546 26.2559 67.7613 27.1549 69.4503 28.844C70.3493 29.743 71.0032 30.8055 71.4663 31.9497L74.2723 30.9144C72.5833 26.4466 68.2517 23.2592 63.1845 23.2592C56.6462 23.2592 51.3339 28.5716 51.3339 35.1098C51.3339 41.6481 56.6462 46.9604 63.1845 46.9604C68.0065 46.9604 72.1474 44.0999 73.9999 39.9863L71.1666 38.9511C70.7307 39.8228 70.1586 40.6401 69.4503 41.3757ZM79.4578 35.9271H87.3582V32.9304H79.4578V26.3921H88.9928V23.3954H76.4611V46.8242H88.9928V43.8275H79.4578V35.9271ZM96.0706 23.3954H91.4393V46.8242H94.436V39.3325H96.0706C100.429 39.3052 103.971 35.7364 103.971 31.3503C103.971 26.9915 100.429 23.4227 96.0706 23.3954ZM96.0706 36.3357H94.436V26.3921H96.0706C98.7676 26.4194 100.974 28.6533 100.974 31.3503C100.974 34.0746 98.7676 36.3085 96.0706 36.3357ZM115.819 34.2653C116.991 33.1211 117.726 31.5138 117.726 29.7158C117.726 26.2559 114.92 23.4227 111.461 23.3954H106.284V46.8242H111.461H111.951C115.738 46.8242 118.816 43.7458 118.816 39.9318C118.816 37.5889 117.617 35.4912 115.819 34.2653ZM109.281 26.3921H111.597C113.34 26.5011 114.73 27.945 114.73 29.7158C114.73 31.5138 113.34 32.9576 111.597 33.0666H109.281V26.3921ZM112.142 43.8275H109.281V36.0633H112.142C114.185 36.1723 115.819 37.8613 115.819 39.9318C115.819 42.0295 114.185 43.7185 112.142 43.8275ZM130.798 23.3954L124.259 39.06V23.3954H121.263V46.8242H124.259L130.798 31.2958V46.8242H133.794V23.3954H130.798ZM154.079 41.3757C152.444 43.092 150.183 43.9637 147.813 43.9637C145.443 43.9637 143.236 43.0375 141.547 41.3757C139.858 39.7139 138.959 37.4799 138.959 35.1098C138.959 32.7397 139.885 30.533 141.547 28.844C143.209 27.1549 145.443 26.2559 147.813 26.2559C150.183 26.2559 152.389 27.1549 154.079 28.844C154.978 29.743 155.631 30.8055 156.095 31.9497L158.901 30.9144C157.211 26.4466 152.88 23.2592 147.813 23.2592C141.274 23.2592 135.962 28.5716 135.962 35.1098C135.962 41.6481 141.274 46.9604 147.813 46.9604C152.635 46.9604 156.776 44.0999 158.628 39.9863L155.795 38.9511C155.359 39.8228 154.787 40.6401 154.079 41.3757ZM171.549 46.8242H174.682L168.961 23.3954H164.33L158.745 46.8242H161.878L163.84 38.379H169.534L171.549 46.8242ZM164.548 35.3822L166.619 26.3921H166.673L168.825 35.3822H164.548Z" fill="white"/>
<circle cx="33.4942" cy="13.1714" r="10.1113" transform="rotate(180 33.4942 13.1714)" fill="#FFD600"/>
<circle cx="10.1113" cy="37.1856" r="10.1113" transform="rotate(180 10.1113 37.1856)" fill="white"/>
<circle cx="33.4942" cy="37.1856" r="10.1113" transform="rotate(180 33.4942 37.1856)" fill="white"/>
<circle cx="10.1113" cy="13.1714" r="10.1113" transform="rotate(180 10.1113 13.1714)" fill="white"/>
</svg>

<svg width="175" height="53" fill="none" xmlns="http://www.w3.org/2000/svg"><path d="M61.43 3.414h-2.122v14.31l-4.243-14.31H52.75l4.3 14.464h-4.493V20h8.871V3.414zm8.684 0v7.232h-4.63V3.414h-2.12V20h2.12v-7.232h4.63V20h2.121V3.414h-2.121zm10.791 0l-4.628 11.09V3.413h-2.122V20h2.122l4.629-10.993V20h2.121V3.414h-2.121zm10.793 7.695a4.483 4.483 0 001.35-3.22 4.482 4.482 0 00-4.436-4.475h-3.665V20H88.96c2.68 0 4.86-2.18 4.86-4.88a4.871 4.871 0 00-2.121-4.011zm-4.63-5.574h1.64a2.368 2.368 0 010 4.725h-1.64V5.535zm2.026 12.343h-2.025v-5.496h2.025a2.75 2.75 0 012.604 2.739 2.754 2.754 0 01-2.604 2.757zm8.579-5.592h5.593v-2.122h-5.593V5.535h6.75V3.414h-8.872V20h8.872v-2.122h-6.75v-5.592zm11.761-8.872h-3.279V20h2.121v-5.304h1.158c3.085-.019 5.593-2.546 5.593-5.65 0-3.086-2.508-5.613-5.593-5.632zm0 9.16h-1.158V5.536h1.158c1.909.02 3.471 1.601 3.471 3.51 0 1.929-1.562 3.51-3.471 3.53zm19.67 3.569c-1.157 1.215-2.758 1.832-4.436 1.832a6.278 6.278 0 01-4.436-1.832c-1.195-1.177-1.832-2.758-1.832-4.436a6.28 6.28 0 011.832-4.436c1.177-1.196 2.758-1.832 4.436-1.832s3.24.636 4.436 1.832c.637.636 1.099 1.389 1.427 2.199l1.987-.733a8.397 8.397 0 00-7.85-5.42c-4.628 0-8.389 3.761-8.389 8.39 0 4.629 3.761 8.39 8.389 8.39a8.385 8.385 0 007.657-4.938l-2.006-.733a6.925 6.925 0 01-1.215 1.717zm11.714-12.73l-4.629 11.09V3.413h-2.122V20h2.122l4.629-10.993V20h2.121V3.414h-2.121zm12.527 0h-8.871v2.122h3.375V20h2.121V5.535h3.375V3.414zm3.656 8.873h5.593v-2.122h-5.593V5.535h6.75V3.414h-8.872V20h8.872v-2.122h-6.75v-5.592zm16.968-8.872h-8.872v2.121h3.375V20h2.122V5.535h3.375V3.414zM69.45 41.376c-1.634 1.716-3.895 2.588-6.266 2.588-2.37 0-4.576-.926-6.265-2.588-1.69-1.662-2.588-3.896-2.588-6.266s.926-4.577 2.588-6.266c1.662-1.69 3.895-2.588 6.266-2.588 2.37 0 4.576.899 6.265 2.588.9.899 1.553 1.961 2.016 3.106l2.806-1.036c-1.689-4.467-6.02-7.655-11.088-7.655-6.538 0-11.85 5.313-11.85 11.85 0 6.54 5.312 11.851 11.85 11.851 4.823 0 8.963-2.86 10.816-6.974l-2.833-1.035a9.828 9.828 0 01-1.717 2.425zm10.008-5.449h7.9V32.93h-7.9v-6.538h9.535v-2.997H76.46v23.43h12.532v-2.998h-9.535v-7.9zM96.07 23.395h-4.632v23.43h2.997v-7.492h1.635c4.358-.028 7.9-3.597 7.9-7.983 0-4.359-3.542-7.927-7.9-7.955zm0 12.94h-1.635v-9.943h1.635c2.697.027 4.903 2.261 4.903 4.958 0 2.725-2.206 4.959-4.903 4.986zm19.748-2.07a6.33 6.33 0 001.907-4.55c0-3.46-2.806-6.292-6.265-6.32h-5.177v23.43h5.667c3.787 0 6.865-3.08 6.865-6.893a6.88 6.88 0 00-2.997-5.667zm-6.538-7.873h2.316a3.34 3.34 0 013.133 3.324 3.345 3.345 0 01-3.133 3.35h-2.316v-6.674zm2.861 17.436h-2.861v-7.765h2.861a3.884 3.884 0 013.677 3.869 3.89 3.89 0 01-3.677 3.895zm18.656-20.433l-6.539 15.665V23.395h-2.996v23.43h2.996l6.539-15.53v15.53h2.996v-23.43h-2.996zm23.281 17.98c-1.635 1.717-3.896 2.589-6.266 2.589s-4.577-.926-6.266-2.588-2.588-3.896-2.588-6.266.926-4.577 2.588-6.266c1.662-1.69 3.896-2.588 6.266-2.588s4.576.899 6.266 2.588c.899.899 1.552 1.961 2.016 3.106l2.806-1.036c-1.69-4.467-6.021-7.655-11.088-7.655-6.539 0-11.851 5.313-11.851 11.85 0 6.54 5.312 11.851 11.851 11.851 4.822 0 8.963-2.86 10.815-6.974l-2.833-1.035a9.838 9.838 0 01-1.716 2.425zm17.47 5.45h3.133l-5.721-23.43h-4.631l-5.585 23.43h3.133l1.962-8.446h5.694l2.015 8.445zm-7.001-11.443l2.071-8.99h.054l2.152 8.99h-4.277z" fill="#fff"/><circle cx="33.494" cy="13.171" r="10.111" transform="rotate(180 33.494 13.171)" fill="#FFD600"/><circle cx="10.111" cy="37.186" r="10.111" transform="rotate(180 10.111 37.186)" fill="#fff"/><circle cx="33.494" cy="37.186" r="10.111" transform="rotate(180 33.494 37.186)" fill="#fff"/><circle cx="10.111" cy="13.171" r="10.111" transform="rotate(180 10.111 13.171)" fill="#fff"/></svg>
